svg/coloured/jira.svg

<svg width="24" height="24" xmlns="http://www.w3.org/2000/svg">

 <g>
  <title>Layer 1</title>
  <path fill="#007fff" id="svg_1" d="m11.53,2c0,2.4 1.97,4.35 4.35,4.35l1.78,0l0,1.7c0,2.4 1.94,4.34 4.34,4.35l0,-9.56a0.84,0.84 0 0 0 -0.84,-0.84l-9.63,0m-4.76,4.8c0.01,2.39 1.95,4.33 4.34,4.34l1.8,0l0,1.72c0.01,2.39 1.95,4.33 4.34,4.34l0,-9.57c-0.01,-0.46 -0.37,-0.82 -0.83,-0.83l-9.65,0m-4.77,4.8c0,2.4 1.95,4.34 4.35,4.34l1.78,0l0,1.72c0.01,2.39 1.95,4.34 4.34,4.34l0,-9.57a0.84,0.84 0 0 0 -0.84,-0.84l-9.63,0.01z" color="blue"/>
 </g>
</svg>

<svg xmlns="http://www.w3.org/2000/svg" id="mdi-jira" viewBox="0 0 24 24"><path  color="blue"  d="M11.53,2C11.53,4.4 13.5,6.35 15.88,6.35H17.66V8.05C17.66,10.45 19.6,12.39 22,12.4V2.84A0.84,0.84 0 0,0 21.16,2H11.53M6.77,6.8C6.78,9.19 8.72,11.13 11.11,11.14H12.91V12.86C12.92,15.25 14.86,17.19 17.25,17.2V7.63C17.24,7.17 16.88,6.81 16.42,6.8H6.77M2,11.6C2,14 3.95,15.94 6.35,15.94H8.13V17.66C8.14,20.05 10.08,22 12.47,22V12.43A0.84,0.84 0 0,0 11.63,11.59L2,11.6Z" /></svg>
